web/ui/src/components/theme/workflow/svgs/view-log.svg

<svg height="24" viewBox="0 0 24 24" width="24" xmlns="http://www.w3.org/2000/svg"><g fill="none"><path d="m0 0h24v24h-24z" fill="#000" opacity="0"/><path d="m19.3846154 1.71428571h-14.76923078c-1.60175232.00115911-2.8999398 1.29934659-2.90109891 2.90109891v14.76923078c.00115911 1.6017523 1.29934659 2.8999398 2.90109891 2.9010989h10.39120878c.4369726 0 .7912088-.3542363.7912088-.7912088 0-.4369726-.3542362-.7912088-.7912088-.7912088h-10.39120878c-.72686127 0-1.31868132-.5918201-1.31868132-1.3186813v-14.76923078c0-.72686127.59182005-1.31868132 1.31868132-1.31868132h14.76923078c.7268612 0 1.3186813.59182005 1.3186813 1.31868132v14.76923078c0 .7268612-.5918201 1.3186813-1.3186813 1.3186813h-.2363118c-.4369726 0-.7912088.3542362-.7912088.7912088 0 .4369725.3542362.7912088.7912088.7912088h.2363118c1.6017523-.0011591 2.8999398-1.2993466 2.9010989-2.9010989v-14.76923078c-.0011591-1.60175232-1.2993466-2.8999398-2.9010989-2.90109891zm-12.91570056 5.80219781h8.03340656c.4369726 0 .7912088-.35423625.7912088-.79120879 0-.43697255-.3542362-.7912088-.7912088-.7912088h-8.03340656c-.43697255 0-.7912088.35423625-.7912088.7912088 0 .43697254.35423625.79120879.7912088.79120879zm10.02197806 3.69230768h-10.03673081c-.43697255 0-.79120879.3542363-.79120879.7912088s.35423624.7912088.79120879.7912088h10.03673081c.4369725 0 .7912087-.3542363.7912087-.7912088s-.3542362-.7912088-.7912087-.7912088zm-10.02197806 5.2747253c-.43697254 0-.79120875.3542362-.79120875.7912088 0 .4369725.35423621.7912088.79120875.7912088h3.97609206c.4369725 0 .7912088-.3542363.7912088-.7912088 0-.4369726-.3542363-.7912088-.7912088-.7912088zm11.15816616-10.54945074h-.0812431c-.4367308 0-.7500618.35445759-.7500618.79120897 0 .43675137.3956044.79120879.8323558.79120879.4369725-.00029018.7909735-.35476166.7906835-.79173421-.0002903-.43697255-.3547618-.79097355-.7917344-.79068355z" fill="#526579"/></g></svg>

<?xml version="1.0" encoding="UTF-8"?>
<svg width="24px" height="24px" viewBox="0 0 24 24" version="1.1" xmlns="http://www.w3.org/2000/svg" xmlns:xlink="http://www.w3.org/1999/xlink">
    <title>日志</title>
    <g id="页面-1" stroke="none" stroke-width="1" fill="none" fill-rule="evenodd">
        <g id="建木自动化-详情4备份-2" transform="translate(-918.000000, -600.000000)" fill-rule="nonzero">
            <g id="编组-13" transform="translate(811.000000, 585.000000)">
                <g id="日志" transform="translate(107.000000, 15.000000)">
                    <rect id="矩形" fill="#000000" opacity="0" x="0" y="0" width="24" height="24"></rect>
                    <path d="M19.3846154,1.71428571 L4.61538462,1.71428571 C3.0136323,1.71544482 1.71544482,3.0136323 1.71428571,4.61538462 L1.71428571,19.3846154 C1.71544482,20.9863677 3.0136323,22.2845552 4.61538462,22.2857143 L15.0065934,22.2857143 C15.443566,22.2857143 15.7978022,21.931478 15.7978022,21.4945055 C15.7978022,21.0575329 15.443566,20.7032967 15.0065934,20.7032967 L4.61538462,20.7032967 C3.88852335,20.7032967 3.2967033,20.1114766 3.2967033,19.3846154 L3.2967033,4.61538462 C3.2967033,3.88852335 3.88852335,3.2967033 4.61538462,3.2967033 L19.3846154,3.2967033 C20.1114766,3.2967033 20.7032967,3.88852335 20.7032967,4.61538462 L20.7032967,19.3846154 C20.7032967,20.1114766 20.1114766,20.7032967 19.3846154,20.7032967 L19.1483036,20.7032967 C18.711331,20.7032967 18.3570948,21.0575329 18.3570948,21.4945055 C18.3570948,21.931478 18.711331,22.2857143 19.1483036,22.2857143 L19.3846154,22.2857143 C20.9863677,22.2845552 22.2845552,20.9863677 22.2857143,19.3846154 L22.2857143,4.61538462 C22.2845552,3.0136323 20.9863677,1.71544482 19.3846154,1.71428571 Z M6.46891484,7.51648352 L14.5023214,7.51648352 C14.939294,7.51648352 15.2935302,7.16224727 15.2935302,6.72527473 C15.2935302,6.28830218 14.939294,5.93406593 14.5023214,5.93406593 L6.46891484,5.93406593 C6.03194229,5.93406593 5.67770604,6.28830218 5.67770604,6.72527473 C5.67770604,7.16224727 6.03194229,7.51648352 6.46891484,7.51648352 Z M16.4908929,11.2087912 L6.45416209,11.2087912 C6.01718954,11.2087912 5.6629533,11.5630275 5.6629533,12 C5.6629533,12.4369725 6.01718954,12.7912088 6.45416209,12.7912088 L16.4908929,12.7912088 C16.9278654,12.7912088 17.2821016,12.4369725 17.2821016,12 C17.2821016,11.5630275 16.9278654,11.2087912 16.4908929,11.2087912 L16.4908929,11.2087912 Z M6.46891484,16.4835165 C6.0319423,16.4835165 5.67770609,16.8377527 5.67770609,17.2747253 C5.67770609,17.7116978 6.0319423,18.0659341 6.46891484,18.0659341 L10.4450069,18.0659341 C10.8819794,18.0659341 11.2362157,17.7116978 11.2362157,17.2747253 C11.2362157,16.8377527 10.8819794,16.4835165 10.4450069,16.4835165 L6.46891484,16.4835165 L6.46891484,16.4835165 Z M17.627081,5.93406576 L17.5458379,5.93406576 C17.1091071,5.93406576 16.7957761,6.28852335 16.7957761,6.72527473 C16.7957761,7.1620261 17.1913805,7.51648352 17.6281319,7.51648352 C18.0651044,7.51619334 18.4191054,7.16172186 18.4188154,6.72474931 C18.4185251,6.28777676 18.0640536,5.93377576 17.627081,5.93406576 L17.627081,5.93406576 Z" id="形状" fill="#526579"></path>
                </g>
            </g>
        </g>
    </g>
</svg>
